X:28
T:Karis Pers Polska (Hambo)
R:Hambo
M:3/4
L:1/8
K:D
"D"A2(uA>B) A>G|(G>F) (F>D) F>A|d2(d>e) d>c|"G"(c>B)B4|
"A"e2(e>f)  e>d|(d>c) (c>A) c>e|a2(a>b) a>g|"D"(g>f)f4|
"D"A2(A>B) A>G|(G>F) (F>D) F>A|d2(d>e) d>c|"G"(c>B)B4|
"A"e2(e>f)  e>d|(d>c) (c>A) c>e|a2(a>g) f>e|"D"d2d4||
|:"G"(g>f) (e>d) e>g|"D"(f>e) (d>c) d>f|"A"(e>d) (c>A) B>c|"D"(d>e)(f<g) a>f|
"G"(g>f) (e>d) e>g|"D"(f>e) (d>c) d>f|"A"(e>d) (c>A) B>c|"D"d2d4:|
